static/images/icon-arrow.svg

<svg viewBox="0 0 16 15" xmlns="http://www.w3.org/2000/svg"><path d="m1 8h11.86l-3.63 4.36c-.42621.5133-.38277.9832.13031 1.4096.51308.4265.98299.3833 1.40969-.1296l5-6c.0337-.04779.0637-.09779.09-.15 0-.05.05-.08.07-.13.0457-.11564.0691-.23565.07-.36-.001-.12435-.0243-.24435-.07-.36 0-.05-.05-.08-.07-.13-.0263-.05221-.0563-.10221-.09-.15l-5-5.999997c-.2003-.240509-.457-.36050914-.77-.36000084-.24106-.0004711-.45439.07619574-.64.22999984-.21296.176557-.33214.402567-.35754.678029-.02539.275459.05045.519449.22754.731969l3.63 4.36h-11.86c-.666667 0-1 .33333-1 1s.333333 1 1 1z"/></svg>

<svg viewBox="0 0 16 15" xmlns="http://www.w3.org/2000/svg">
<path d="M1 8H12.86L9.23 12.36C8.80379 12.8733 8.84723 13.3432 9.36031 13.7696C9.87339 14.1961 10.3433 14.1529 10.77 13.64L15.77 7.64C15.8037 7.59221 15.8337 7.54221 15.86 7.49C15.86 7.44 15.91 7.41 15.93 7.36C15.9757 7.24436 15.9991 7.12435 16 7C15.999 6.87565 15.9757 6.75565 15.93 6.64C15.93 6.59 15.88 6.56 15.86 6.51C15.8337 6.45779 15.8037 6.40779 15.77 6.36L10.77 0.360003C10.5697 0.119494 10.313 -0.000506142 10 2.15784e-06C9.75894 -0.000468942 9.54561 0.0761979 9.36 0.230002C9.14704 0.406559 9.02786 0.632569 9.00246 0.908031C8.97707 1.18349 9.05291 1.42748 9.23 1.64L12.86 6H1C0.333333 6 0 6.33333 0 7C0 7.66667 0.333333 8 1 8Z" />
</svg>
